X:396
T: Die Woche (4-96), S.128
N: P0666
O: Lothringen
S: PINCK, Louis: Verklingende Weisen Bd 4, Kassel 1939]
R: ???]
M: 2/2
L: 1/16
K: D
 | F4F2FFF4E4 | A8D8
F6G2A4F4 | G8F8
E6EEE4F4 | D8D8
D2D2D4D4F4 | E4E4D4z4
A8F4D4 | E8F8
F2G2G4F4A4 | ^G8A8
D8E4F4 | E8D8

